X:1
T:Miss Plaudy's -- Reel
R:reel
B:Ryan's Mammoth Collection
N: 271
Z: Contributed by Ray Davies,  ray:davies99.freeserve.co.uk
M:C|
L:1/8
K:G
ud|\
BG(3.G.G.G Bcdg | BGgB aGGc | BG(3.G.G.G Bcde | dega (bg)gd |
BG(3.G.G.G Bcdg | BGgB aAAc | BG(3.G.G.G Bcde | dega (bg)g:|
|:ua|\
bgfg (eg)(dg) | cgBg aAAa | bgfg (eg)(dg) | efga (bg)(ga) |
(bg)(fg) (eg)(dg) | (cg)(Bg) (aA)(Ac) | BGcA dBge | dBcA (BG)G:|
